assets/img/braze_icons/repeat-03.svg

<svg fill="none" height="24" viewBox="0 0 24 24" width="24" xmlns="http://www.w3.org/2000/svg"><g fill="#801ed7"><path d="m11.7071 1.29289c-.3905-.390521-1.0237-.390521-1.4142 0-.39053.39053-.39053 1.02369 0 1.41422l1.2929 1.29289h-2.5858c-4.41828 0-8 3.58172-8 8 0 3.1928 1.87043 5.9468 4.57091 7.2296.49885.237 1.09537.0247 1.33235-.4741.23698-.4989.02469-1.0954-.47417-1.3324-2.02942-.9641-3.42909-3.0311-3.42909-5.4231 0-3.31371 2.68629-6 6-6h2.5858l-1.2929 1.29289c-.39053.39053-.39053 1.02369 0 1.41422.3905.39052 1.0237.39052 1.4142 0l3-3c.3905-.39053.3905-1.02369 0-1.41422z"/><path d="m18.4291 4.77031c-.4989-.23698-1.0954-.02469-1.3324.47417-.2369.49886-.0246 1.09537.4742 1.33235 2.0294.96408 3.4291 3.03113 3.4291 5.42307 0 3.3138-2.6863 6-6 6h-2.5857l1.2928-1.2928c.3905-.3905.3905-1.0237 0-1.4142s-1.0237-.3905-1.4142 0l-3.00001 3c-.39052.3905-.39052 1.0237 0 1.4142l3.00001 3c.3905.3905 1.0237.3905 1.4142 0s.3905-1.0237 0-1.4142l-1.2929-1.293h2.5858c4.4183 0 8-3.5817 8-8 0-3.19277-1.8704-5.94673-4.5709-7.22959z"/></g></svg>

<svg width="24" height="24" viewBox="0 0 24 24" fill="none" xmlns="http://www.w3.org/2000/svg">
<path d="M11.7071 1.29289C11.3166 0.902369 10.6834 0.902369 10.2929 1.29289C9.90237 1.68342 9.90237 2.31658 10.2929 2.70711L11.5858 4H9C4.58172 4 1 7.58172 1 12C1 15.1928 2.87043 17.9468 5.57091 19.2296C6.06976 19.4666 6.66628 19.2543 6.90326 18.7555C7.14024 18.2566 6.92795 17.6601 6.42909 17.4231C4.39967 16.459 3 14.392 3 12C3 8.68629 5.68629 6 9 6H11.5858L10.2929 7.29289C9.90237 7.68342 9.90237 8.31658 10.2929 8.70711C10.6834 9.09763 11.3166 9.09763 11.7071 8.70711L14.7071 5.70711C15.0976 5.31658 15.0976 4.68342 14.7071 4.29289L11.7071 1.29289Z" fill="#801ED7"/>
<path d="M18.4291 4.77031C17.9302 4.53333 17.3337 4.74562 17.0967 5.24448C16.8598 5.74334 17.0721 6.33985 17.5709 6.57683C19.6003 7.54091 21 9.60796 21 11.9999C21 15.3137 18.3137 17.9999 15 17.9999H12.4143L13.7071 16.7071C14.0976 16.3166 14.0976 15.6834 13.7071 15.2929C13.3166 14.9024 12.6834 14.9024 12.2929 15.2929L9.29289 18.2929C8.90237 18.6834 8.90237 19.3166 9.29289 19.7071L12.2929 22.7071C12.6834 23.0976 13.3166 23.0976 13.7071 22.7071C14.0976 22.3166 14.0976 21.6834 13.7071 21.2929L12.4142 19.9999H15C19.4183 19.9999 23 16.4182 23 11.9999C23 8.80713 21.1296 6.05317 18.4291 4.77031Z" fill="#801ED7"/>
</svg>
